assets/Land.sentence.svg

<svg height="15" viewBox="0 0 467 15" width="467" xmlns="http://www.w3.org/2000/svg"><g fill="none" fill-rule="evenodd"><path d="m0 1h465" fill-rule="nonzero" stroke="#fbf5f0" stroke-linecap="round" stroke-linejoin="round" stroke-width="2" transform="translate(1 13)"/><g transform="translate(205)"><g stroke="#3a3939"><path d="m.8958 14.0001h161v-11h63v11h20" stroke-linecap="round" stroke-linejoin="round" stroke-width="2"/><path d="m161.5267 9.8702h63.5" stroke-width=".5"/><path d="m161.5267 12.8702h63.5" stroke-width=".5"/><path d="m161.5267 6.8702h63.5" stroke-width=".5"/><path d="m168.4114 3.3663v9.5"/><path d="m173.4114 3.3663v9.5"/><path d="m178.4114 3.3663v9.5"/><path d="m183.4114 3.3663v9.5"/><path d="m188.4114 3.3663v9.5"/><path d="m193.4114 3.3663v9.5" stroke-width="2"/><path d="m198.4114 3.3663v9.5"/><path d="m203.4114 3.3663v9.5"/><path d="m208.4114 3.3663v9.5"/><path d="m213.4114 3.3663v9.5"/><path d="m218.4114 3.3663v9.5"/></g><g fill="#3a3939" transform="translate(160)"><path d="m3.8235 12.9894h-2.965v-11.914c0-.369.3-.669.669-.669h1.627c.369 0 .669.3.669.669z"/><path d="m65.9642 12.9894h-2.964v-11.914c0-.369.299-.669.669-.669h1.626c.37 0 .669.3.669.669z"/></g></g></g></svg>

<?xml version="1.0" encoding="UTF-8"?>
<svg width="467px" height="15px" viewBox="0 0 467 15" version="1.1" xmlns="http://www.w3.org/2000/svg" xmlns:xlink="http://www.w3.org/1999/xlink">
    <!-- Generator: Sketch 52.4 (67378) - http://www.bohemiancoding.com/sketch -->
    <title>Group 4</title>
    <desc>Created with Sketch.</desc>
    <g id="Green_diet_v3" stroke="none" stroke-width="1" fill="none" fill-rule="evenodd">
        <g id="Desktop_1400" transform="translate(-264.000000, -2254.000000)">
            <g id="Group-4" transform="translate(265.000000, 2254.000000)">
                <g id="Group-3" transform="translate(0.000000, 13.000000)" fill-rule="nonzero" stroke="#FBF5F0" stroke-linecap="round" stroke-linejoin="round" stroke-width="2">
                    <path d="M0,1 L465,1" id="Path-4"></path>
                </g>
                <g id="Group-21" transform="translate(204.000000, 0.000000)">
                    <polyline id="Stroke-1" stroke="#3A3939" stroke-width="2" stroke-linecap="round" stroke-linejoin="round" points="0.8958 14.0001 161.8958 14.0001 161.8958 3.0001 224.8958 3.0001 224.8958 14.0001 244.8958 14.0001"></polyline>
                    <path d="M161.5267,9.8702 L225.0267,9.8702" id="Stroke-2" stroke="#3A3939" stroke-width="0.5"></path>
                    <path d="M161.5267,12.8702 L225.0267,12.8702" id="Stroke-3" stroke="#3A3939" stroke-width="0.5"></path>
                    <path d="M161.5267,6.8702 L225.0267,6.8702" id="Stroke-4" stroke="#3A3939" stroke-width="0.5"></path>
                    <path d="M168.4114,3.3663 L168.4114,12.8663" id="Stroke-5" stroke="#3A3939"></path>
                    <path d="M173.4114,3.3663 L173.4114,12.8663" id="Stroke-6" stroke="#3A3939"></path>
                    <path d="M178.4114,3.3663 L178.4114,12.8663" id="Stroke-7" stroke="#3A3939"></path>
                    <path d="M183.4114,3.3663 L183.4114,12.8663" id="Stroke-8" stroke="#3A3939"></path>
                    <path d="M188.4114,3.3663 L188.4114,12.8663" id="Stroke-9" stroke="#3A3939"></path>
                    <path d="M193.4114,3.3663 L193.4114,12.8663" id="Stroke-10" stroke="#3A3939" stroke-width="2"></path>
                    <path d="M198.4114,3.3663 L198.4114,12.8663" id="Stroke-11" stroke="#3A3939"></path>
                    <path d="M203.4114,3.3663 L203.4114,12.8663" id="Stroke-12" stroke="#3A3939"></path>
                    <path d="M208.4114,3.3663 L208.4114,12.8663" id="Stroke-13" stroke="#3A3939"></path>
                    <path d="M213.4114,3.3663 L213.4114,12.8663" id="Stroke-14" stroke="#3A3939"></path>
                    <path d="M218.4114,3.3663 L218.4114,12.8663" id="Stroke-15" stroke="#3A3939"></path>
                    <g id="Group-20" transform="translate(160.000000, 0.000000)" fill="#3A3939">
                        <path d="M3.8235,12.9894 L0.8585,12.9894 L0.8585,1.0754 C0.8585,0.7064 1.1585,0.4064 1.5275,0.4064 L3.1545,0.4064 C3.5235,0.4064 3.8235,0.7064 3.8235,1.0754 L3.8235,12.9894 Z" id="Fill-16"></path>
                        <path d="M65.9642,12.9894 L63.0002,12.9894 L63.0002,1.0754 C63.0002,0.7064 63.2992,0.4064 63.6692,0.4064 L65.2952,0.4064 C65.6652,0.4064 65.9642,0.7064 65.9642,1.0754 L65.9642,12.9894 Z" id="Fill-18"></path>
                    </g>
                </g>
            </g>
        </g>
    </g>
</svg>
